icons/outline/adjustments-pause.svg

<!--
category: System
tags: [settings, break, halt, stop, temporary, wait, intermission, hold, suspend, interruption]
version: "2.10"
unicode: "f805"
-->
<svg
  xmlns="http://www.w3.org/2000/svg"
  width="24"
  height="24"
  viewBox="0 0 24 24"
  fill="none"
  stroke="currentColor"
  stroke-width="2"
  stroke-linecap="round"
  stroke-linejoin="round"
>
  <path d="M4 10a2 2 0 1 0 4 0a2 2 0 0 0 -4 0m2 -6v4m0 4v8m7.627 -5.164a2 2 0 1 0 -.62 2.892m-1.007 -13.728v10m0 4v2m4 -13a2 2 0 1 0 4 0a2 2 0 0 0 -4 0m2 -3v1m-1 12v5m4 -5v5m-3 -13v4.5" />
</svg>

<!--
category: System
tags: [settings, break, halt, stop, temporary, wait, intermission, hold, suspend, interruption]
version: "2.10"
unicode: "f805"
-->
<svg
  xmlns="http://www.w3.org/2000/svg"
  width="24"
  height="24"
  viewBox="0 0 24 24"
  fill="none"
  stroke="currentColor"
  stroke-width="2"
  stroke-linecap="round"
  stroke-linejoin="round"
>
    <path d="M4 10a2 2 0 1 0 4 0a2 2 0 0 0 -4 0M6 4v4M6 12v8M13.627 14.836a2 2 0 1 0 -.62 2.892M12 4v10M12 18v2M16 7a2 2 0 1 0 4 0a2 2 0 0 0 -4 0M18 4v1M17 17v5M21 17v5M18 9v4.5" />
</svg>
